X:5
T:MacArthur Road
T: Seconds
R:Reel
C: Adam Blaine
L:1/8
M:C|
K:D
[|{g}dA {gAGAG}A2 {g}AB{g}de | {fege} f2 {g}fd {g}ed{g}Bd | {gef}e2 {A}ef {g}ed{g}Bd | {g}ef{g}fd {g}ed{g}Be |
{g}dA {gAGAG}A2 {g}AB{g}de | {fege} f2 {g}fd {g}ed{g}Bd | {gef}e2 {A}ef {g}ed{g}B{d}A| {g}AB{g}de {Gdc}d2 {g}de ||
{g}dA {gAGAG}A2 {g}dAeA | {g}d8 | {e}A8 | {g}d4 {e}A4 |
{g}dA {gAGAG}A2 {g}dAeA | {g}d8 | {e}A8 | {g}AB{g}de {Gdc}d2 {g}de |
{g}dA {gAGAG}A2 {g}dAeA | {g}dAeA {g}d4| {g}A8 | {g}c4 {g}f2g2 |
"    Welcome back to the opener"{g}f8| {gf}g8 | (e8 | e2) f2 g2 e2 |
{g}(f8 | f8) | {g}a8 | {g}d3 a3 f2 | {g}(a8 | a2) g2 f z3 |]

